icons/yoke.svg

<svg xmlns="http://www.w3.org/2000/svg" viewBox="0 0 48 48"><defs><style>.a{fill:none;stroke:#fff;stroke-linecap:round;stroke-linejoin:round;}</style></defs><path class="a" d="M12.8,33.9V14.1c4.3-1.6,1.9-5.9,0-5.9H7.3A2.62,2.62,0,0,0,4.5,11V31.9a7.8,7.8,0,0,0,8.2,8H35.6a7.81,7.81,0,0,0,7.8-7.5V10.5a2.42,2.42,0,0,0-2.6-2.4H35c-1.9,0-4.1,4.8,0,5.9V33.8H31.7V24.2c0-2.9-1.7-4.5-4.5-4.5H20.5A4.12,4.12,0,0,0,16.3,24v9.8H12.8Z"/><rect class="a" x="20.9" y="24.5" width="6.1" height="6"/><line class="a" x1="20.9" y1="33.9" x2="27.1" y2="33.9"/><line class="a" x1="35.1" y1="15.6" x2="38.8" y2="15.6"/><line class="a" x1="35.1" y1="20.3" x2="38.8" y2="20.3"/><line class="a" x1="35.1" y1="25" x2="38.8" y2="25"/><line class="a" x1="12.8" y1="25" x2="9.2" y2="25"/><line class="a" x1="12.8" y1="20.3" x2="9.2" y2="20.3"/><line class="a" x1="12.8" y1="15.6" x2="9.2" y2="15.6"/></svg>

<?xml version="1.0" encoding="utf-8"?>
<!-- Generator: Adobe Illustrator 25.1.0, SVG Export Plug-In . SVG Version: 6.00 Build 0)  -->
<svg version="1.1"
	 id="svg8" inkscape:version="1.0.1 (3bc2e813f5, 2020-09-07)" sodipodi:docname="template.svg" xmlns:cc="http://creativecommons.org/ns#" xmlns:dc="http://purl.org/dc/elements/1.1/" xmlns:inkscape="http://www.inkscape.org/namespaces/inkscape" xmlns:rdf="http://www.w3.org/1999/02/22-rdf-syntax-ns#" xmlns:sodipodi="http://sodipodi.sourceforge.net/DTD/sodipodi-0.dtd" xmlns:svg="http://www.w3.org/2000/svg"
	 xmlns="http://www.w3.org/2000/svg" xmlns:xlink="http://www.w3.org/1999/xlink" x="0px" y="0px" viewBox="0 0 48 48"
	 style="enable-background:new 0 0 48 48;" xml:space="preserve">
<style type="text/css">
	.st0{fill:none;stroke:#FFFFFF;stroke-linecap:round;stroke-linejoin:round;}
	.st1{fill:none;stroke:#FFFFFF;stroke-linecap:round;stroke-linejoin:round;stroke-miterlimit:5.8;}
</style>
<sodipodi:namedview  bordercolor="#666666" borderopacity="1" gridtolerance="10" guidetolerance="10" id="namedview10" inkscape:current-layer="svg8" inkscape:cx="24.50984" inkscape:cy="24.577633" inkscape:document-rotation="0" inkscape:guide-bbox="true" inkscape:pageopacity="0" inkscape:pageshadow="2" inkscape:window-height="2098" inkscape:window-maximized="1" inkscape:window-width="3840" inkscape:window-x="0" inkscape:window-y="25" inkscape:zoom="4.6643592" objecttolerance="10" pagecolor="#595959" showgrid="false" showguides="true">
	</sodipodi:namedview>
<g>
	<g>
		<path id="path8157" sodipodi:nodetypes="ccccccccccccccccccccc" class="st0" d="M12.8,33.9V14.1c4.3-1.6,1.9-5.9,0-5.9H7.3
			c-1.8,0-2.8,1.2-2.8,2.8v20.9c0,3.7,2.5,8,8.2,8h22.9c4.8,0,7.8-4.1,7.8-7.5V10.5c0-1.3-1-2.4-2.6-2.4h-5.8c-1.9,0-4.1,4.8,0,5.9
			v19.8h-3.3v-9.6c0-2.9-1.7-4.5-4.5-4.5h-6.7c-2.7,0-4.2,2.1-4.2,4.3v9.8H12.8z"/>
		<rect id="rect8159" x="20.9" y="24.5" class="st1" width="6.1" height="6"/>
		<line id="rect8159-4_1_" class="st1" x1="20.9" y1="33.9" x2="27.1" y2="33.9"/>
	</g>
	<line class="st0" x1="35.1" y1="15.6" x2="38.8" y2="15.6"/>
	<line class="st0" x1="35.1" y1="20.3" x2="38.8" y2="20.3"/>
	<line class="st0" x1="35.1" y1="25" x2="38.8" y2="25"/>
	<line class="st0" x1="12.8" y1="25" x2="9.2" y2="25"/>
	<line class="st0" x1="12.8" y1="20.3" x2="9.2" y2="20.3"/>
	<line class="st0" x1="12.8" y1="15.6" x2="9.2" y2="15.6"/>
</g>
</svg>
